!!!OTL: Gretlein. / Form der Melodie im Volksmund vermuthlich so:
!!!ARE: Europa, Mitteleuropa, Deutschland
!!!SCT: A0053B
!!!YEM: Copyright 1995, estate of Helmut Schaffrath.
**kern
*M6/4
*k[f#]
*G:
{4g
=1
2dd
4dd
2cc
4b
=2
(2g
4a)
2g}
{4g
=3
2dd
4dd
2cc
4b
=4
(<4.a
8b/
4cc)
2b}
{4a
=5
2g
4g
2f#
4d
=6
2e
4f#
2g}
{4b
=7
2a
4a
(4g
4f#)
4e
=8
2.d}
{2.dd^^
=9
2dd
4dd
(4cc
4b)
4a
=10
[2.g
4g]
4r}
==
!!!GTL: Balladen und Romanzen (erzählende Volkslieder)
!!!AGN: Romanze, Ballade, Lied
!! Nach Boehme die vermutete volkstuemliche Form von A0053A.
!!!ONB: ESAC (Essen Associative Code) Database: ALTDEU
!!!AMT: compound duple
!!!AIN: vox
!!!EED: Helmut Schaffrath
!!!EEV: 1.0
!!!RDF**kern: < = below
!!!URL-scan: https://rosdok.uni-rostock.de/mcrviewer/recordIdentifier/rosdok_ppn738218359/iview2/phys_0208.iview2?x=-425.8853427895981&y=2576.26524824393&scale=0.4823261117445838&rotation=0&layout=singlePageLayout&logicalDiv=log_0007
!!!ENC: Anna Maria Matuszewska
!!!EEV: 2024/19/02
*-
